X: 16106
T: Green Garters
R: reel
M: 4/4
K: Dmajor
|:d2 fd Adfd|d2 fa gece|d2 fd Adfd|1 eA (3Bcd egfe:|2 eA (3Bcd efge||
|:a3 b afdf|a2 fd ef (3gfe|1 a3 b afdf|eA (3Bcd efge:|2 afge fdec|A2 (3Bcd efge||

